X: 49
T:Jig For Chris
% Nottingham Music Database
S:Mike Richardson 30.3.89, via Phil Rowe
M:6/8
K:G
D|"G"GBd "D"cBA|"G"BGE DB,D|"G"EDB, "Em"G,B,D|"Am"GDB, "D"A,2D|
"G"GBd "D"cBA|"G"BGE DB,D|"G"EDB, "Em"G,B,D|"D"EGF "G"G2:|
A|"G"Bdd gdd|"D"Add fdd|"C"Gcc ecA|"D"FAG FED|"G"Bdd gdd|"D"Add fdd|"A"egf ed^c|
"D"d3 dcB|"C"cee "G"Bdd|"D"Acc "G"GBB|"C"cBA "G"BAG|"D"FAF DEF|
"G"GBB "C"Acc|"G"Bdd "C"cee|"G"def "Em"gdB|"D"AGF G2||


